Adwaita++/actions/22/format-text-blockquote.svg

<svg height="22" viewBox="0 0 22 22" width="22" xmlns="http://www.w3.org/2000/svg">
  <path d="m6 5c-1.1046 0-2 .89543-2 2v2.53125h.0019531a1.5 1.5 0 0 0 1.4980469 1.46875 1.5 1.5 0 0 0 1.5-1.5 1.5 1.5 0 0 0 -1.5-1.5 1.5 1.5 0 0 0 -.03125.0019531v-.0019531h-.46875v-1c0-.55228.44772-1 1-1zm4 0c-1.1046 0-2 .89543-2 2v2.53125h.0019531a1.5 1.5 0 0 0 1.4980469 1.46875 1.5 1.5 0 0 0 1.5-1.5 1.5 1.5 0 0 0 -1.5-1.5 1.5 1.5 0 0 0 -.03125.0019531v-.0019531h-.46875v-1c0-.55228.44772-1 1-1z" fill="#444" transform="translate(3 3)"/>
</svg>

<svg xmlns="http://www.w3.org/2000/svg" width="22" height="22" viewBox="0 0 22 22">
 <defs>
  <style id="current-color-scheme" type="text/css">
   .ColorScheme-Text { color:#444444; } .ColorScheme-Highlight { color:#4285f4; }
  </style>
 </defs>
 <path style="fill:currentColor" class="ColorScheme-Text" d="M 6 5 C 4.8954 5 4 5.89543 4 7 L 4 9.53125 L 4.0019531 9.53125 A 1.5 1.5 0 0 0 5.5 11 A 1.5 1.5 0 0 0 7 9.5 A 1.5 1.5 0 0 0 5.5 8 A 1.5 1.5 0 0 0 5.46875 8.0019531 L 5.46875 8 L 5 8 L 5 7 C 5 6.44772 5.44772 6 6 6 L 6 5 z M 10 5 C 8.8954 5 8 5.89543 8 7 L 8 9.53125 L 8.0019531 9.53125 A 1.5 1.5 0 0 0 9.5 11 A 1.5 1.5 0 0 0 11 9.5 A 1.5 1.5 0 0 0 9.5 8 A 1.5 1.5 0 0 0 9.46875 8.0019531 L 9.46875 8 L 9 8 L 9 7 C 9 6.44772 9.44772 6 10 6 L 10 5 z" transform="translate(3 3)"/>
</svg>
